src/assets/svg/icons/fa/nuevos/classic/light/building classic light.svg

<svg xmlns="http://www.w3.org/2000/svg" viewBox="0 0 384 512"><!--! Font Awesome Pro 6.4.0 by @fontawesome - https://fontawesome.com License - https://fontawesome.com/license (Commercial License) Copyright 2023 Fonticons, Inc. --><path d="M64 32C46.3 32 32 46.3 32 64V448c0 17.7 14.3 32 32 32h64V416c0-35.3 28.7-64 64-64s64 28.7 64 64v64h64c17.7 0 32-14.3 32-32V64c0-17.7-14.3-32-32-32H64zM224 416c0-17.7-14.3-32-32-32s-32 14.3-32 32v64h64V416zm-96 96H64c-35.3 0-64-28.7-64-64V64C0 28.7 28.7 0 64 0H320c35.3 0 64 28.7 64 64V448c0 35.3-28.7 64-64 64H256 224 160 128zM64 120c0-13.3 10.7-24 24-24h48c13.3 0 24 10.7 24 24v48c0 13.3-10.7 24-24 24H88c-13.3 0-24-10.7-24-24V120zm32 8v32h32V128H96zM248 96h48c13.3 0 24 10.7 24 24v48c0 13.3-10.7 24-24 24H248c-13.3 0-24-10.7-24-24V120c0-13.3 10.7-24 24-24zm8 64h32V128H256v32zM64 248c0-13.3 10.7-24 24-24h48c13.3 0 24 10.7 24 24v48c0 13.3-10.7 24-24 24H88c-13.3 0-24-10.7-24-24V248zm32 8v32h32V256H96zm152-32h48c13.3 0 24 10.7 24 24v48c0 13.3-10.7 24-24 24H248c-13.3 0-24-10.7-24-24V248c0-13.3 10.7-24 24-24zm8 64h32V256H256v32z"/></svg>

<svg xmlns="http://www.w3.org/2000/svg" viewBox="0 0 384 512"><path d="M64 120C64 106.7 74.75 96 88 96H136C149.3 96 160 106.7 160 120V168C160 181.3 149.3 192 136 192H88C74.75 192 64 181.3 64 168V120zM96 128V160H128V128H96zM296 96C309.3 96 320 106.7 320 120V168C320 181.3 309.3 192 296 192H248C234.7 192 224 181.3 224 168V120C224 106.7 234.7 96 248 96H296zM288 160V128H256V160H288zM64 248C64 234.7 74.75 224 88 224H136C149.3 224 160 234.7 160 248V296C160 309.3 149.3 320 136 320H88C74.75 320 64 309.3 64 296V248zM96 256V288H128V256H96zM296 224C309.3 224 320 234.7 320 248V296C320 309.3 309.3 320 296 320H248C234.7 320 224 309.3 224 296V248C224 234.7 234.7 224 248 224H296zM288 288V256H256V288H288zM64 512C28.65 512 0 483.3 0 448V64C0 28.65 28.65 0 64 0H320C355.3 0 384 28.65 384 64V448C384 483.3 355.3 512 320 512H64zM32 64V448C32 465.7 46.33 480 64 480H128V416C128 380.7 156.7 352 192 352C227.3 352 256 380.7 256 416V480H320C337.7 480 352 465.7 352 448V64C352 46.33 337.7 32 320 32H64C46.33 32 32 46.33 32 64zM224 416C224 398.3 209.7 384 192 384C174.3 384 160 398.3 160 416V480H224V416z"/></svg>
